logos/plasmic.svg

<?xml version="1.0" encoding="UTF-8"?>
<svg width="256px" height="137px" viewBox="0 0 256 137" version="1.1" xmlns="http://www.w3.org/2000/svg" preserveAspectRatio="xMidYMid">
    <title>Plasmic</title>
    <g>
        <path d="M256,120.554561 C252.033658,53.3062642 196.248431,0 128,0 C59.7601175,0 3.96634166,53.3062642 0,120.554561 C0.230800053,123.452384 0.70094831,125.589422 1.64124482,127.435822 C3.28029996,130.652554 5.89559595,133.26785 9.11232804,134.906905 C12.5486844,136.659276 16.9766262,136.761854 25.4221985,136.770402 L25.4221985,128.222252 C25.4221985,71.573661 71.3514091,25.6444504 128,25.6444504 C184.648591,25.6444504 230.577802,71.573661 230.577802,128.222252 L230.577802,136.770402 C239.023374,136.770402 243.451316,136.659276 246.887672,134.906905 C250.104404,133.26785 252.7197,130.652554 254.358755,127.435822 C255.299052,125.589422 255.7692,123.452384 256,120.554561 Z" fill="#0091FF"></path>
        <path d="M128,59.8370509 C90.2318964,59.8370509 59.614799,90.4541483 59.614799,128.222252 L59.614799,136.770402 L33.9703486,136.770402 L33.9703486,128.222252 C33.9703486,76.2922399 76.069988,34.1926005 128,34.1926005 C179.930012,34.1926005 222.029651,76.2922399 222.029651,128.222252 L222.029651,136.770402 L196.385201,136.770402 L196.385201,128.222252 C196.385201,90.4541483 165.768104,59.8370509 128,59.8370509 Z" fill="#46A758"></path>
        <path d="M187.837051,136.770402 L187.837051,128.222252 C187.837051,95.1751612 161.047091,68.385201 128,68.385201 C94.9529093,68.385201 68.1629491,95.1751612 68.1629491,128.222252 L68.1629491,136.770402 L85.2592494,136.770402 C89.9802623,136.770402 93.8073995,132.943265 93.8073995,128.222252 C93.8073995,109.3382 109.115948,94.0296514 128,94.0296514 C146.884052,94.0296514 162.192601,109.3382 162.192601,128.222252 C162.192601,132.943265 166.019738,136.770402 170.740751,136.770402 L187.837051,136.770402 Z" fill="#E54D2E"></path>
    </g>
</svg>

<svg preserveAspectRatio="xMidYMid" viewBox="0 0 256 137" xmlns="http://www.w3.org/2000/svg">
  <path fill="#0091FF" d="M256 120.555C252.034 53.306 196.248 0 128 0 59.76 0 3.966 53.306 0 120.555c.23 2.897.7 5.034 1.641 6.88a17.096 17.096 0 0 0 7.471 7.472c3.437 1.752 7.865 1.855 16.31 1.863v-8.548c0-56.648 45.93-102.578 102.578-102.578 56.649 0 102.578 45.93 102.578 102.578v8.548c8.445 0 12.873-.11 16.31-1.863a17.096 17.096 0 0 0 7.47-7.471c.941-1.847 1.411-3.984 1.642-6.881Z"/>
  <path fill="#46A758" d="M128 59.837c-37.768 0-68.385 30.617-68.385 68.385v8.548H33.97v-8.548c0-51.93 42.1-94.03 94.03-94.03s94.03 42.1 94.03 94.03v8.548h-25.645v-8.548c0-37.768-30.617-68.385-68.385-68.385Z"/>
  <path fill="#E54D2E" d="M187.837 136.77v-8.548c0-33.047-26.79-59.837-59.837-59.837-33.047 0-59.837 26.79-59.837 59.837v8.548h17.096a8.548 8.548 0 0 0 8.548-8.548c0-18.884 15.309-34.192 34.193-34.192s34.193 15.308 34.193 34.192a8.548 8.548 0 0 0 8.548 8.548h17.096Z"/>
</svg>
